X: 1846
T: Ruler of the King's Navy
C:Gilbert & Sullivan, published 1878
B: australian traditional tunes wiki
M:2/4
L:1/8
R: March
Q: 1/4=100
K:D
V:1 
A |"D" dd dd |"A7" cc cc |"G" BB B/d/c/B/ |  "D" AF FA |
"D" dd de/d/ |"A7" cc cd/c/ |"Em" Be e/f/e/d/ |"A7" cA AA |
"D" fd dA | dA AA | "Em" BB B/d/c/B/ |"D" AF FA |
"D" fd dA | dA AA |"G" B/c/d"A7" c/d/e |"D" d2 [Dd] |
% abcbook-tune_id 6342d53a5004c9073548061b


% abcbook-boost 0
% abcbook-tablature 
% abcbook-transpose 
% abcbook-lastupdated 1665324387496
% abcbook-soundfonts 
% abcbook-repeats 1
% NFF Book 2017

